X: 0
T: The New Scotland Strathspey
T: 4x40S4
R: strathspey
K:
%
P: Captain E. G. Elder, Black Watch
C: Calum Bolton
Z: 2009 John Chambers <jc:trillian.mit.edu>
M: C
L: 1/8
K: F
c2 \
| "F"A<F A>B d>F d>c | "C7"B>G e>d (3cdc (3BAG \
| "F"A<F A>B d>F d>c | "C7"B>G g>f (3efe (3dcB |
| "F"A<F A>B d>F d>c | "G7"=B>G g>f "C7"e>c g>a \
| "C7"(3bag (3efg "Bb"fed (3Bcd | "C7"(3cBA (3BAG "F"F2 :|
|: c2 \
| "F"f>c a>g f<g (3fed | "C7"B>G e>d "F"c2 c>B \
| "C7"G<E c>B "Dm"A>F d>c | "C7"(3ced (3cBA G2 G>c |
| "F"f>c a>g f<g (3fed | "C7"B>G e>d "F"c2 c>B \
| "Dm"A<F d>c "C7"B>G e>d | "F"(3cBA "C7"(3BAG "F"F2 :|
[| G2 \
| "F"A>F A<c "Bb"B>G B<d | "F"c>A c>f "D7"(3efg (3cde \
| "F"f>c f<a "C7"g>e (3gab | "F"(3agf "C7"(3gfe "F"f>e "C7"(3dcB |
| "F"A>F A<c "Bb"B>G B<d | "F"c>A c>f "D7"(3efg (3cde \
| "F"f>c f<a "C7"g>e (3gab | "F"(3agf "C7"(3gfe "F"f2 |]
%
P: The New Scotland Strathspey
C: Calum Bolton
B: 50th Anniversary Collection #4
N: Also in A
Z: 1997 by John Chambers <jc:trillian.mit.edu>
M: C
L: 1/8
K: Bb
   B>c \
| "Bb"d>c B>c d>B b>B | a>B f>B d>B d<f \
| "F7"c>B A>B c>A a>A | g>A e>A c>A c<e |
| "Bb"d>c B>c d>B b>B | a>B f>B d>B d<f \
| "F7"c>B A>B c>A c<e | "Bb"d<f "F7"B>c "Bb"B2 :|
|: d>e \
| "Bb"f2 d>f B>f d<f | d>B b>B a>B fc/d/ \
| "F7"e2 c>e A>e c<e | c>A a>A g>A ed/e/ |
| "Bb"f2 d>f B>f d<f | (3dcB b>B a>B fc/d/ \
| "F7"e>c A>c e>A c<e | "Bb"d<f "F7"B>c "Bb"B2 :|
   f2 \
| "Bb"(3dcB f>B d<B f>B | b2 a>b f>b d<b \
| "F7"(3cBA e>A c>A e>A | a2 g>a e>a c<a |
| "Bb"(3dcB f>B d<B f>B | b2 a>b f>b d<b \
| "F7"e>c A>c e>A c<e | "Bb"d<f "F7"B>c "Bb"B2 |]
